places/scalable/folder-black-github.svg

<?xml version="1.0" standalone="no"?><!-- Generator: Gravit.io -->
<svg xmlns="http://www.w3.org/2000/svg" 
  xmlns:xlink="http://www.w3.org/1999/xlink" style="isolation:isolate" viewBox="0 0 256 256" width="256" height="256">
  <g id="folder">
    <path d=" M 53.705469 21 C 17.390414 21 13.666667 23.055089 13.666667 59.371035 L 13.666667 111.538229 L 243.666667 111.538229 L 243.666667 79.563042 C 243.666667 43.247098 239.942918 37.460768 203.627861 37.460768 L 114.291921 37.460768 L 97.864201 21 L 53.705469 21 Z " id="orange" fill="#000000"/>
    <path d=" M 53.705469 70.384311 C 17.388415 70.384311 13.666667 74.113541 13.666667 110.429488 L 13.666667 194.952819 C 13.666667 231.268759 17.388415 235 53.705469 235 L 203.627861 235 C 239.944918 235 243.666667 231.268759 243.666667 194.952819 L 243.666667 93.968715 C 243.666667 57.652775 239.944918 53.921534 203.627861 53.921534 L 120.196686 53.921534 L 103.758968 70.384311 L 53.705469 70.384311 Z " id="change-color-easy" fill="#1A1A1A"/>
    <linearGradient id="_lgradient_1" x1="0" y1="0.5" x2="2.83276944882399e-16" y2="-0.5" gradientTransform="matrix(230,0,0,181.078466,13.666667,53.921534)" gradientUnits="userSpaceOnUse">
      <stop offset="0%" stop-opacity="0.07" style="stop-color:rgb(255,255,255)"/>
      <stop offset="67.28219512106674%" stop-opacity="0" style="stop-color:rgb(252,239,232)"/>
    </linearGradient>
    <path d=" M 53.705469 70.384311 C 17.388415 70.384311 13.666667 74.113541 13.666667 110.429488 L 13.666667 194.952819 C 13.666667 231.268759 17.388415 235 53.705469 235 L 203.627861 235 C 239.944918 235 243.666667 231.268759 243.666667 194.952819 L 243.666667 93.968715 C 243.666667 57.652775 239.944918 53.921534 203.627861 53.921534 L 120.196686 53.921534 L 103.758968 70.384311 L 53.705469 70.384311 Z " id="gradient white" fill="url(#_lgradient_1)"/>
    <g opacity="0.4">
      <radialGradient id="_rgradient_2" fx="0.5000000213726793" fy="0.13577386516315215" cx="0.5" cy="0.5" r="0.27154159375000003" gradientTransform="matrix(230,0,0,60.620138,13.666667,21)" gradientUnits="userSpaceOnUse">
        <stop offset="0%" stop-opacity="1" style="stop-color:rgb(255,255,255)"/>
        <stop offset="100%" stop-opacity="0.20392157" style="stop-color:rgb(255,255,255)"/>
      </radialGradient>
      <path d=" M 53.705469 21 C 17.390414 21 13.666667 23.055089 13.666667 59.371035 L 13.666667 61.430128 C 13.666667 25.114188 17.390414 23.057095 53.705469 23.057095 L 97.864201 23.057095 L 114.291921 39.517861 L 203.627861 39.517861 C 239.942918 39.517861 243.666667 45.304195 243.666667 81.620138 L 243.666667 79.563042 C 243.666667 43.247098 239.942918 37.460768 203.627861 37.460768 L 114.291921 37.460768 L 97.864201 21 L 53.705469 21 Z " id="white" fill="url(#_rgradient_2)"/>
    </g>
    <g opacity="0.4">
      <radialGradient id="_rgradient_3" fx="0.48214287810452355" fy="0.2108154047287485" cx="0.5" cy="0.5" r="0.27154159375" gradientTransform="matrix(230,0,0,58.565044,13.666667,53.921534)" gradientUnits="userSpaceOnUse">
        <stop offset="0%" stop-opacity="1" style="stop-color:rgb(255,255,255)"/>
        <stop offset="100%" stop-opacity="0.20392157" style="stop-color:rgb(255,255,255)"/>
      </radialGradient>
      <path d=" M 120.196686 53.921534 L 103.758968 70.384311 L 53.705469 70.384311 C 17.390414 70.384311 13.666667 74.111537 13.666667 110.427484 L 13.666667 112.486577 C 13.666667 76.170637 17.390414 72.4414 53.705469 72.4414 L 103.758968 72.4414 L 120.196686 55.980634 L 203.627861 55.980634 C 239.942918 55.980634 243.666667 59.707868 243.666667 96.023808 L 243.666667 93.966711 C 243.666667 57.650771 239.942918 53.921534 203.627861 53.921534 L 120.196686 53.921534 Z " id="white" fill="url(#_rgradient_3)"/>
    </g>
    <g opacity="0.1">
      <path d=" M 243.666667 167.095832 L 177.951803 232.940899 L 203.627861 232.940899 C 239.942918 232.940899 243.666667 229.213666 243.666667 192.897726 L 243.666667 167.095832 Z " id="white" fill="rgb(255,255,255)"/>
    </g>
    <g opacity="0.2">
      <path d=" M 13.666667 192.897726 L 13.666667 194.954823 C 13.666667 231.270763 17.390414 235 53.705469 235 L 203.627861 235 C 239.942918 235 243.666667 231.270763 243.666667 194.954823 L 243.666667 192.897726 C 243.666667 229.213666 239.942918 232.940899 203.627861 232.940899 L 53.705469 232.940899 C 17.390414 232.940899 13.666667 229.213666 13.666667 192.897726 Z " id="dark" fill="rgb(0,0,0)"/>
    </g>
  </g>
  <g opacity="0.62">
    <path d=" M 127.995 92 C 94.865 92 68 119.544452 68 153.522608 C 68 180.697955 85.19 203.756757 109.035 211.892444 C 112.035 212.456355 113.13 210.559566 113.13 208.929352 C 113.13 207.468312 113.08 203.597837 113.05 198.466254 C 96.36 202.182935 92.84 190.217785 92.84 190.217785 C 90.11 183.112516 86.18 181.220853 86.18 181.220853 C 80.73 177.401643 86.59 177.483666 86.59 177.483666 C 92.61 177.919415 95.78 183.825093 95.78 183.825093 C 101.13 193.227015 109.825 190.509993 113.24 188.936171 C 113.785 184.963167 115.335 182.251271 117.05 180.713334 C 103.725 179.160018 89.72 173.884894 89.72 150.308319 C 89.72 143.592661 92.06 138.102226 95.895 133.801128 C 95.28 132.242686 93.22 125.988408 96.485 117.519502 C 96.485 117.519502 101.525 115.863656 112.985 123.825044 C 117.880801 122.459197 122.931202 121.762803 128.005 121.753955 C 133.1 121.779587 138.235 122.461406 143.025 123.825044 C 154.48 115.863656 159.51 117.519502 159.51 117.519502 C 162.785 125.988408 160.725 132.242686 160.105 133.801128 C 163.95 138.102226 166.27 143.592661 166.27 150.308319 C 166.27 173.941285 152.24 179.139512 138.875 180.66207 C 141.03 182.558859 142.95 186.316551 142.95 192.053057 C 142.95 200.275893 142.875 206.909528 142.875 208.929352 C 142.875 210.574945 143.955 212.487113 147 211.887318 C 170.825 203.731125 188 180.692828 188 153.522608 C 188 119.544452 161.135 92 127.995 92 Z " fill-rule="evenodd" id="github" fill="#FFFFFF"/>
  </g>
</svg>

<svg xmlns="http://www.w3.org/2000/svg" style="isolation:isolate" width="256" height="256"><path d="M53.705 21c-36.315 0-40.038 2.055-40.038 38.371v52.167h230V79.563c0-36.316-3.724-42.102-40.04-42.102h-89.335L97.864 21H53.705z"/><path d="M53.705 70.384c-36.317 0-40.038 3.73-40.038 40.045v84.524c0 36.316 3.721 40.047 40.038 40.047h149.923c36.317 0 40.039-3.731 40.039-40.047V93.969c0-36.316-3.722-40.047-40.04-40.047h-83.43l-16.438 16.462H53.705z" fill="#1A1A1A"/><linearGradient id="a" y1=".5" x2="0" y2="-.5" gradientTransform="matrix(230 0 0 181.07847 13.667 53.922)" gradientUnits="userSpaceOnUse"><stop offset="0%" stop-opacity=".07" stop-color="#fff"/><stop offset="67.282%" stop-opacity="0" stop-color="#fcefe8"/></linearGradient><path d="M53.705 70.384c-36.317 0-40.038 3.73-40.038 40.045v84.524c0 36.316 3.721 40.047 40.038 40.047h149.923c36.317 0 40.039-3.731 40.039-40.047V93.969c0-36.316-3.722-40.047-40.04-40.047h-83.43l-16.438 16.462H53.705z" fill="url(#a)"/><g opacity=".4"><radialGradient id="b" fx=".5" fy=".136" cx=".5" cy=".5" r=".272" gradientTransform="matrix(230 0 0 60.62014 13.667 21)" gradientUnits="userSpaceOnUse"><stop offset="0%" stop-color="#fff"/><stop offset="100%" stop-opacity=".204" stop-color="#fff"/></radialGradient><path d="M53.705 21c-36.315 0-40.038 2.055-40.038 38.371v2.06c0-36.317 3.723-38.374 40.038-38.374h44.16l16.427 16.46h89.336c36.315 0 40.039 5.787 40.039 42.103v-2.057c0-36.316-3.724-42.102-40.04-42.102h-89.335L97.864 21H53.705z" fill="url(#b)"/></g><g opacity=".4"><radialGradient id="c" fx=".482" fy=".211" cx=".5" cy=".5" r=".272" gradientTransform="matrix(230 0 0 58.56504 13.667 53.922)" gradientUnits="userSpaceOnUse"><stop offset="0%" stop-color="#fff"/><stop offset="100%" stop-opacity=".204" stop-color="#fff"/></radialGradient><path d="M120.197 53.922l-16.438 16.462H53.705c-36.315 0-40.038 3.728-40.038 40.043v2.06c0-36.316 3.723-40.046 40.038-40.046h50.054l16.438-16.46h83.43c36.316 0 40.04 3.727 40.04 40.043v-2.057c0-36.316-3.724-40.045-40.04-40.045h-83.43z" fill="url(#c)"/></g><path d="M243.667 167.096l-65.715 65.845h25.676c36.315 0 40.039-3.727 40.039-40.043v-25.802z" fill="#FFF" opacity=".1"/><path d="M13.667 192.898v2.057C13.667 231.27 17.39 235 53.705 235h149.923c36.315 0 40.039-3.73 40.039-40.045v-2.057c0 36.316-3.724 40.043-40.04 40.043H53.706c-36.315 0-40.038-3.727-40.038-40.043z" opacity=".2"/><g opacity=".62"><path d="M127.995 92C94.865 92 68 119.544 68 153.523c0 27.175 17.19 50.234 41.035 58.37 3 .563 4.095-1.333 4.095-2.964 0-1.46-.05-5.331-.08-10.463-16.69 3.717-20.21-8.248-20.21-8.248-2.73-7.105-6.66-8.997-6.66-8.997-5.45-3.82.41-3.737.41-3.737 6.02.435 9.19 6.341 9.19 6.341 5.35 9.402 14.045 6.685 17.46 5.111.545-3.973 2.095-6.685 3.81-8.223-13.325-1.553-27.33-6.828-27.33-30.405 0-6.715 2.34-12.206 6.175-16.507-.615-1.558-2.675-7.813.59-16.281 0 0 5.04-1.656 16.5 6.305a56.248 56.248 0 0 1 15.02-2.071c5.095.026 10.23.707 15.02 2.071 11.455-7.961 16.485-6.305 16.485-6.305 3.275 8.468 1.215 14.723.595 16.281 3.845 4.301 6.165 9.792 6.165 16.507 0 23.633-14.03 28.832-27.395 30.354 2.155 1.897 4.075 5.655 4.075 11.391 0 8.223-.075 14.857-.075 16.876 0 1.646 1.08 3.558 4.125 2.958 23.825-8.156 41-31.194 41-58.364C188 119.544 161.135 92 127.995 92z" fill-rule="evenodd" fill="#FFF"/></g></svg>
